src/assets/flags/gu.svg

<?xml version="1.0" encoding="UTF-8"?>
<svg xmlns="http://www.w3.org/2000/svg" xmlns:xlink="http://www.w3.org/1999/xlink" width="25px" height="19px" viewBox="0 0 25 19" version="1.1">
<g id="surface1">
<rect x="0" y="0" width="25" height="19" style="fill:rgb(74.509805%,0%,15.294118%);fill-opacity:1;stroke:none;"/>
<path style=" stroke:none;fill-rule:evenodd;fill:rgb(23.137255%,35.294119%,63.921571%);fill-opacity:1;" d="M 1 1.082031 L 24.027344 1.082031 L 24.027344 18.039062 L 1 18.039062 Z M 1 1.082031 "/>
<path style=" stroke:none;fill-rule:evenodd;fill:rgb(79.607844%,87.843138%,89.803922%);fill-opacity:1;" d="M 12.28125 16.355469 C 12.382812 16.40625 12.503906 16.40625 12.609375 16.359375 C 17.992188 13.457031 17.992188 5.503906 12.613281 2.640625 C 12.503906 2.589844 12.378906 2.59375 12.273438 2.648438 C 7.027344 5.554688 7.011719 13.417969 12.277344 16.355469 Z M 12.28125 16.355469 "/>
<path style=" stroke:none;fill-rule:evenodd;fill:rgb(67.843139%,82.352942%,85.09804%);fill-opacity:1;" d="M 12.28125 16.503906 C 12.359375 16.570312 12.53125 16.5625 12.609375 16.503906 C 16.574219 13.492188 16.59375 11.621094 16.421875 11.621094 L 8.570312 11.621094 C 8.453125 11.621094 8.640625 13.53125 12.28125 16.503906 "/>
<path style=" stroke:none;fill-rule:evenodd;fill:rgb(99.215686%,97.647059%,63.137257%);fill-opacity:1;" d="M 9.191406 13.109375 C 9.550781 12.996094 9.9375 13.019531 10.28125 13.175781 C 10.578125 13.335938 10.75 13.335938 11.070312 13.335938 C 11.40625 13.34375 11.667969 13.59375 12.03125 13.605469 C 12.699219 13.621094 12.980469 13.957031 12.460938 13.960938 C 12.21875 13.960938 11.691406 13.789062 11.4375 13.828125 C 10.90625 13.882812 10.570312 14 10.070312 14.566406 L 10.648438 14.960938 C 11.148438 14.761719 11.230469 14.527344 11.507812 14.519531 C 11.820312 14.507812 11.925781 14.3125 12.289062 14.3125 C 12.722656 14.351562 13.160156 14.308594 13.578125 14.1875 C 14.15625 14.050781 13.882812 13.640625 13.53125 13.492188 C 13.246094 13.371094 12.71875 13.488281 12.390625 13.367188 C 12.140625 13.269531 12.34375 13.109375 12.480469 13.078125 C 12.613281 13.050781 12.757812 13.097656 12.925781 13.125 C 13.226562 13.148438 13.605469 13.121094 13.867188 13.078125 C 14.414062 12.996094 14.390625 12.832031 14.648438 12.828125 C 14.84375 12.816406 14.988281 12.761719 15.117188 12.667969 C 15.273438 12.558594 15.433594 12.351562 15.621094 12.359375 L 16.117188 12.378906 L 15.414062 13.976562 L 13.433594 16.023438 L 12.40625 16.417969 L 10.148438 14.925781 L 9.011719 13.15625 Z M 9.191406 13.109375 "/>
<path style=" stroke:none;fill-rule:evenodd;fill:rgb(9.019608%,60.392159%,23.137255%);fill-opacity:1;" d="M 11.789062 11.558594 L 16.320312 11.535156 L 16.398438 11.125 C 16.398438 11.125 16.238281 11.101562 16.105469 11.09375 C 15.945312 11.082031 15.664062 11.269531 15.480469 11.265625 C 15.34375 11.265625 15.195312 11.027344 15.0625 11.027344 C 14.828125 11.027344 14.8125 11.238281 14.59375 11.246094 C 14.417969 11.238281 14.34375 11.101562 14.113281 11.117188 C 13.882812 11.136719 13.894531 11.265625 13.59375 11.257812 C 13.195312 11.246094 13.035156 10.898438 12.714844 10.894531 C 12.183594 10.886719 12.167969 11.40625 11.785156 11.554688 Z M 11.789062 11.558594 "/>
<path style=" stroke:none;fill-rule:evenodd;fill:rgb(99.215686%,97.647059%,63.137257%);fill-opacity:1;" d="M 11.789062 11.652344 L 16.453125 11.628906 L 16.453125 11.503906 L 11.679688 11.527344 Z M 11.789062 11.652344 "/>
<path style=" stroke:none;fill-rule:evenodd;fill:rgb(65.490198%,57.254905%,43.921569%);fill-opacity:1;" d="M 13.703125 13.074219 C 13.777344 13.351562 13.851562 13.445312 14.140625 13.523438 C 14.425781 13.589844 14.863281 13.308594 14.59375 13.035156 C 14.335938 12.78125 14.0625 12.71875 13.832031 12.488281 C 13.34375 12 12.609375 10.804688 12.609375 9.964844 C 12.609375 9.238281 12.539062 7.753906 12.539062 6.347656 C 12.539062 6.257812 12.265625 6.601562 12.265625 6.699219 C 12.28125 7.9375 12.28125 8.875 12.328125 10.125 C 12.40625 11.039062 12.835938 11.65625 13.214844 12.210938 C 13.382812 12.480469 13.628906 12.765625 13.703125 13.074219 "/>
<path style=" stroke:none;fill-rule:evenodd;fill:rgb(13.725491%,61.960787%,27.450982%);fill-opacity:1;" d="M 10.140625 6.367188 C 10.082031 6.488281 10.28125 6.332031 10.328125 6.316406 C 10.589844 6.222656 10.691406 5.890625 11.140625 6.09375 C 11.492188 6.246094 11.964844 6.15625 11.71875 6.3125 C 11.414062 6.5 10.800781 6.707031 10.789062 7.628906 C 10.839844 7.714844 10.84375 7.703125 10.886719 7.605469 C 10.980469 7.390625 11.421875 6.808594 11.640625 6.855469 C 11.730469 6.878906 11.988281 6.589844 11.992188 6.671875 C 12.019531 6.902344 11.640625 7.371094 11.648438 7.992188 C 11.648438 8.136719 11.824219 8.1875 11.90625 8.082031 C 11.992188 7.992188 12.039062 7.902344 12.1875 7.78125 C 12.445312 7.566406 12.375 6.648438 12.40625 6.695312 C 12.589844 6.929688 12.617188 7.617188 12.890625 7.894531 C 13.121094 8.125 13.304688 8.011719 13.253906 7.695312 C 13.15625 7.046875 12.855469 7.230469 12.710938 6.5625 C 12.679688 6.433594 12.671875 6.316406 12.84375 6.367188 C 13.050781 6.433594 13.175781 6.527344 13.328125 6.765625 C 13.484375 6.996094 13.773438 7.210938 13.941406 7.34375 C 14.234375 7.574219 14.339844 7.375 14.199219 7.082031 C 14.019531 6.75 13.730469 6.492188 13.378906 6.359375 C 13.136719 6.273438 13.050781 6.265625 12.839844 6.226562 C 12.78125 6.214844 12.722656 6.09375 12.824219 6.023438 C 13.050781 5.859375 13.3125 5.753906 13.589844 5.71875 C 13.851562 5.710938 14.058594 5.925781 14.242188 5.980469 C 14.609375 6.074219 14.609375 5.84375 14.445312 5.664062 C 14.3125 5.519531 14.03125 5.269531 13.769531 5.304688 C 13.242188 5.371094 13.277344 5.355469 12.949219 5.574219 C 12.832031 5.644531 12.699219 5.722656 12.75 5.636719 C 12.867188 5.417969 12.757812 5.457031 12.941406 5.238281 C 13.082031 5.078125 13.1875 4.960938 13.332031 4.921875 C 13.464844 4.882812 13.644531 4.742188 13.695312 4.667969 C 13.828125 4.484375 13.714844 4.378906 13.511719 4.441406 C 13.332031 4.488281 13.238281 4.609375 13.121094 4.640625 C 12.832031 4.734375 12.601562 5.390625 12.566406 5.484375 C 12.523438 5.597656 12.472656 5.542969 12.480469 5.445312 C 12.519531 4.984375 12.558594 4.199219 12.402344 3.878906 C 12.152344 3.402344 12.175781 3.625 12.082031 3.851562 C 11.941406 4.207031 11.992188 4.542969 12.082031 4.890625 C 12.121094 5.066406 12.261719 5.265625 12.289062 5.402344 C 12.308594 5.511719 12.226562 5.371094 12.179688 5.304688 C 12.027344 5.066406 11.914062 4.910156 11.664062 4.777344 C 11.414062 4.671875 11.140625 4.644531 10.875 4.699219 C 10.804688 4.722656 10.953125 4.824219 11.011719 4.871094 C 11.179688 5.007812 11.496094 5.050781 11.714844 5.183594 C 11.894531 5.300781 12.035156 5.371094 12.097656 5.53125 C 12.121094 5.648438 12.160156 5.824219 12.082031 5.820312 C 11.882812 5.808594 11.574219 5.628906 10.933594 5.699219 C 10.605469 5.746094 10.324219 6.027344 10.140625 6.367188 "/>
<path style=" stroke:none;fill-rule:evenodd;fill:rgb(0%,0%,0%);fill-opacity:1;" d="M 11.535156 12.292969 L 11.71875 12.292969 L 11.71875 12.605469 L 11.535156 12.605469 Z M 11.535156 12.292969 "/>
<path style=" stroke:none;fill-rule:evenodd;fill:rgb(99.215686%,97.647059%,100%);fill-opacity:1;" d="M 10.613281 10.207031 C 11.347656 11.238281 12.527344 11.839844 12.550781 12.304688 L 10.253906 12.304688 C 10.78125 11.664062 11.105469 11.230469 10.613281 10.207031 "/>
<path style=" stroke:none;fill-rule:evenodd;fill:rgb(65.098041%,53.333336%,38.039216%);fill-opacity:1;" d="M 9.945312 12.332031 C 10.945312 12.554688 12.136719 12.683594 12.898438 12.296875 C 12.90625 12.523438 12.652344 12.851562 12.441406 12.851562 L 10.527344 12.851562 C 10.75 12.816406 10.878906 12.75 11.238281 12.734375 L 10.222656 12.742188 C 10.105469 12.746094 9.910156 12.441406 9.945312 12.332031 "/>
<path style=" stroke:none;fill-rule:evenodd;fill:rgb(74.509805%,0%,15.294118%);fill-opacity:1;" d="M 12.210938 16.824219 C 12.3125 16.882812 12.472656 16.878906 12.5625 16.832031 C 18.335938 13.714844 18.339844 5.175781 12.570312 2.105469 C 12.453125 2.050781 12.316406 2.054688 12.203125 2.113281 C 6.578125 5.234375 6.5625 13.671875 12.210938 16.828125 Z M 12.238281 16.121094 C 12.335938 16.171875 12.453125 16.175781 12.550781 16.125 C 17.378906 13.246094 17.4375 5.632812 12.554688 2.90625 C 12.460938 2.835938 12.324219 2.859375 12.230469 2.90625 C 7.605469 5.679688 7.347656 12.980469 12.238281 16.121094 "/>
<path style=" stroke:none;fill-rule:nonzero;fill:rgb(74.117649%,2.745098%,15.686275%);fill-opacity:1;" d="M 10.5 8.921875 C 10.589844 8.921875 10.667969 8.941406 10.734375 8.976562 C 10.824219 9.023438 10.882812 9.113281 10.902344 9.238281 L 10.78125 9.238281 C 10.765625 9.171875 10.730469 9.117188 10.679688 9.082031 C 10.632812 9.046875 10.570312 9.03125 10.496094 9.03125 C 10.410156 9.03125 10.335938 9.070312 10.273438 9.140625 C 10.214844 9.207031 10.183594 9.304688 10.183594 9.441406 C 10.183594 9.550781 10.207031 9.644531 10.257812 9.71875 C 10.308594 9.789062 10.390625 9.824219 10.503906 9.824219 C 10.589844 9.824219 10.660156 9.800781 10.714844 9.75 C 10.773438 9.699219 10.804688 9.617188 10.804688 9.503906 L 10.507812 9.503906 L 10.507812 9.398438 L 10.921875 9.398438 L 10.921875 9.910156 L 10.839844 9.910156 L 10.808594 9.785156 C 10.765625 9.835938 10.726562 9.871094 10.691406 9.890625 C 10.632812 9.921875 10.5625 9.9375 10.476562 9.9375 C 10.363281 9.9375 10.265625 9.902344 10.183594 9.828125 C 10.09375 9.734375 10.050781 9.605469 10.050781 9.445312 C 10.050781 9.285156 10.09375 9.15625 10.179688 9.0625 C 10.261719 8.96875 10.371094 8.921875 10.5 8.921875 M 10.476562 8.921875 "/>
<path style=" stroke:none;fill-rule:nonzero;fill:rgb(74.117649%,2.745098%,15.686275%);fill-opacity:1;" d="M 11.421875 8.949219 L 11.421875 9.550781 C 11.421875 9.621094 11.433594 9.675781 11.460938 9.722656 C 11.496094 9.792969 11.5625 9.828125 11.65625 9.828125 C 11.761719 9.828125 11.835938 9.792969 11.878906 9.71875 C 11.898438 9.675781 11.910156 9.621094 11.910156 9.550781 L 11.910156 8.945312 L 12.042969 8.945312 L 12.042969 9.492188 C 12.042969 9.609375 12.023438 9.699219 11.988281 9.769531 C 11.933594 9.882812 11.828125 9.9375 11.667969 9.9375 C 11.503906 9.9375 11.394531 9.882812 11.335938 9.765625 C 11.304688 9.699219 11.289062 9.609375 11.289062 9.492188 L 11.289062 8.945312 Z M 11.667969 8.949219 "/>
<path style=" stroke:none;fill-rule:nonzero;fill:rgb(74.117649%,2.745098%,15.686275%);fill-opacity:1;" d="M 13.21875 9.519531 L 13.074219 9.097656 L 12.917969 9.519531 Z M 13.007812 8.945312 L 13.152344 8.945312 L 13.503906 9.914062 L 13.355469 9.914062 L 13.261719 9.625 L 12.882812 9.625 L 12.777344 9.914062 L 12.648438 9.914062 Z M 13.007812 8.945312 "/>
<path style=" stroke:none;fill-rule:nonzero;fill:rgb(74.117649%,2.745098%,15.686275%);fill-opacity:1;" d="M 13.945312 8.945312 L 14.136719 8.945312 L 14.40625 9.765625 L 14.679688 8.945312 L 14.863281 8.945312 L 14.863281 9.910156 L 14.738281 9.910156 L 14.738281 9.097656 L 14.464844 9.910156 L 14.34375 9.910156 L 14.070312 9.097656 L 14.070312 9.910156 L 13.945312 9.910156 Z M 13.945312 8.945312 "/>
</g>
</svg>

<svg xmlns="http://www.w3.org/2000/svg" width="25" height="19" viewBox="0 0 25 19"><path d="M0 0h25v19H0z" style="fill:#be0027;fill-opacity:1;stroke:none"/><path d="M1 1.082h23.027v16.957H1Zm0 0" style="stroke:none;fill-rule:evenodd;fill:#3b5aa3;fill-opacity:1"/><path d="M12.281 16.355c.102.051.223.051.328.004 5.383-2.902 5.383-10.855.004-13.718a.39.39 0 0 0-.34.007c-5.246 2.907-5.261 10.77.004 13.707Zm0 0" style="stroke:none;fill-rule:evenodd;fill:#cbe0e5;fill-opacity:1"/><path d="M12.281 16.504c.078.066.25.058.328 0 3.965-3.012 3.985-4.883 3.813-4.883H8.57c-.117 0 .07 1.91 3.711 4.883" style="stroke:none;fill-rule:evenodd;fill:#add2d9;fill-opacity:1"/><path d="M9.191 13.11c.36-.114.746-.09 1.09.066.297.16.469.16.79.16.335.008.597.258.96.27.668.015.95.351.43.355-.242 0-.77-.172-1.024-.133-.53.055-.867.172-1.367.738l.578.395c.5-.2.582-.434.86-.441.312-.012.418-.207.781-.207.434.039.871-.004 1.29-.126.577-.136.304-.546-.048-.695-.285-.12-.812-.004-1.14-.125-.25-.097-.047-.258.09-.289.132-.027.277.02.445.047.3.023.68-.004.941-.047.547-.082.524-.246.781-.25a.84.84 0 0 0 .47-.16c.155-.11.316-.316.503-.309l.496.02-.703 1.598-1.98 2.046-1.028.395-2.258-1.492-1.136-1.77Zm0 0" style="stroke:none;fill-rule:evenodd;fill:#fdf9a1;fill-opacity:1"/><path d="m11.79 11.559 4.53-.024.078-.41s-.16-.023-.293-.031c-.16-.012-.44.176-.625.172-.136 0-.285-.239-.418-.239-.234 0-.25.211-.468.22-.176-.009-.25-.145-.48-.13-.231.02-.22.149-.52.14-.399-.01-.559-.359-.88-.362-.53-.008-.546.511-.929.66Zm0 0" style="stroke:none;fill-rule:evenodd;fill:#179a3b;fill-opacity:1"/><path d="m11.79 11.652 4.663-.023v-.125l-4.773.023Zm0 0" style="stroke:none;fill-rule:evenodd;fill:#fdf9a1;fill-opacity:1"/><path d="M13.703 13.074c.074.278.149.371.438.45.285.066.722-.215.453-.489-.258-.254-.531-.316-.762-.547-.488-.488-1.223-1.683-1.223-2.523 0-.727-.07-2.211-.07-3.617 0-.09-.273.254-.273.351.015 1.239.015 2.176.062 3.426.078.914.508 1.531.887 2.086.168.27.414.555.488.863" style="stroke:none;fill-rule:evenodd;fill:#a79270;fill-opacity:1"/><path d="M10.14 6.367c-.058.121.141-.035.188-.05.262-.094.363-.426.813-.223.351.152.824.062.578.218-.305.188-.918.395-.93 1.317.05.086.055.074.098-.024.093-.214.535-.796.754-.75.09.024.347-.265.351-.183.028.23-.351.7-.344 1.32 0 .145.176.196.258.09.086-.09.133-.18.281-.3.258-.216.188-1.134.22-1.087.183.235.21.922.484 1.2.23.23.414.117.363-.2-.098-.648-.399-.465-.543-1.133-.031-.128-.04-.246.133-.195.207.067.332.16.484.399.156.23.445.445.613.578.293.23.399.031.258-.262a1.56 1.56 0 0 0-.82-.723c-.242-.086-.328-.093-.54-.132-.058-.012-.116-.133-.015-.204a1.66 1.66 0 0 1 .766-.304c.262-.008.469.207.652.261.367.094.367-.136.203-.316-.133-.144-.414-.394-.675-.36-.528.067-.493.051-.82.27-.118.07-.25.149-.2.063.117-.219.008-.18.191-.399.141-.16.246-.277.391-.316a.9.9 0 0 0 .363-.254c.133-.184.02-.29-.183-.227-.18.047-.274.168-.39.2-.29.093-.52.75-.556.843-.043.114-.093.059-.086-.039.04-.46.079-1.246-.078-1.566-.25-.477-.226-.254-.32-.027-.14.355-.09.691 0 1.039.04.175.18.375.207.511.02.11-.062-.03-.11-.097-.152-.239-.265-.395-.515-.528a1.33 1.33 0 0 0-.789-.078c-.07.024.078.125.137.172.168.137.484.18.703.313.18.117.32.187.383.347.023.117.062.293-.016.29-.2-.012-.508-.192-1.148-.122-.329.047-.61.328-.793.668" style="stroke:none;fill-rule:evenodd;fill:#239e46;fill-opacity:1"/><path d="M11.535 12.293h.184v.312h-.184Zm0 0" style="stroke:none;fill-rule:evenodd;fill:#000;fill-opacity:1"/><path d="M10.613 10.207c.735 1.031 1.914 1.633 1.938 2.098h-2.297c.527-.64.851-1.075.36-2.098" style="stroke:none;fill-rule:evenodd;fill:#fdf9ff;fill-opacity:1"/><path d="M9.945 12.332c1 .223 2.192.352 2.953-.035.008.226-.246.555-.457.555h-1.914c.223-.036.352-.102.711-.118l-1.015.008c-.118.004-.313-.3-.278-.41" style="stroke:none;fill-rule:evenodd;fill:#a68861;fill-opacity:1"/><path d="M12.21 16.824a.41.41 0 0 0 .352.008c5.774-3.117 5.778-11.656.008-14.727a.42.42 0 0 0-.367.008c-5.625 3.121-5.64 11.559.008 14.715Zm.028-.703a.34.34 0 0 0 .313.004c4.828-2.879 4.887-10.492.004-13.219-.094-.07-.23-.047-.325 0-4.625 2.774-4.882 10.074.008 13.215" style="stroke:none;fill-rule:evenodd;fill:#be0027;fill-opacity:1"/><path d="M10.5 8.922q.135.001.234.055c.09.046.149.136.168.261h-.12a.26.26 0 0 0-.102-.156.3.3 0 0 0-.184-.05q-.129.001-.223.109-.088.098-.09.3 0 .166.075.278.076.105.246.105a.3.3 0 0 0 .21-.074q.09-.076.09-.246h-.296v-.106h.414v.512h-.082l-.031-.125a.5.5 0 0 1-.118.106.45.45 0 0 1-.214.046.42.42 0 0 1-.293-.109.53.53 0 0 1-.133-.383q0-.241.129-.383a.41.41 0 0 1 .32-.14M11.422 8.95v.6c0 .071.012.126.039.173q.053.105.195.105.159.001.223-.11a.4.4 0 0 0 .031-.167v-.606h.133v.547q-.001.174-.055.278-.08.169-.32.168-.245.002-.332-.172a.65.65 0 0 1-.047-.274v-.547ZM13.219 9.52l-.145-.422-.156.422Zm-.211-.575h.144l.352.97h-.149l-.093-.29h-.38l-.105.29h-.129ZM13.945 8.945h.192l.27.82.273-.82h.183v.965h-.125v-.812l-.273.812h-.121l-.274-.812v.812h-.125Zm0 0" style="stroke:none;fill-rule:nonzero;fill:#bd0728;fill-opacity:1"/></svg>
